dist/assets/img/svg/samsung-pay.svg

<svg width="201" height="28" viewBox="0 0 201 28"  xmlns="http://www.w3.org/2000/svg">
<path d="M156.615 11.0601H153.705V3.52752H156.615C158.882 3.52752 160.422 5.20814 160.422 7.27957C160.422 9.38035 158.882 11.0601 156.615 11.0601ZM156.895 0H149.899V20.44H153.705V14.5881H156.867C161.121 14.5881 164.255 11.3404 164.255 7.27957C164.255 3.24812 161.121 0 156.895 0Z"/>
<path d="M173.94 17.3035C171.141 17.3035 168.987 15.0637 168.987 12.2081C168.987 9.38012 171.141 7.16835 173.94 7.16835C176.738 7.16835 178.837 9.43583 178.837 12.2081C178.837 15.0361 176.738 17.3035 173.94 17.3035ZM178.642 6.02015C177.466 4.6202 175.535 3.72333 173.381 3.72333C169.239 3.72333 165.265 6.83197 165.265 12.2638C165.265 17.6123 169.378 20.7762 173.324 20.7762C175.479 20.7762 177.438 19.824 178.642 18.3122V20.4398H182.419V4.05971H178.642V6.02015Z"/>
<path d="M192.525 15.0917L187.963 4.06008H183.933L190.65 19.6279L187.207 28H191.042L200.808 4.06008H196.834L192.525 15.0917Z"/>
<path d="M110.73 15.6392H110.625L106.231 0.609923H99.1341V19.5589H103.837L103.572 4.01089H103.677L108.397 19.5589H115.205V0.609923H110.47L110.73 15.6392Z"/>
<path d="M24.7077 2.38365L24.8145 2.38194L27.3634 19.7556H32.4996L28.9756 0.609914H20.4697L16.9257 19.7556H22.0933L24.7077 2.38365Z"/>
<path d="M49.3582 0.609914L47.0002 15.2499H46.8913L44.5367 0.609914H36.7384L36.317 19.7556H41.1024L41.2219 2.5442H41.3273L44.521 19.7556H49.3722L52.5671 2.5459L52.6726 2.5442L52.7921 19.7556H57.5744L57.153 0.609914H49.3582Z"/>
<path d="M6.94859 20.505C10.408 20.505 13.2521 19.3237 13.7067 16.1271C13.9393 14.4748 13.7683 13.3922 13.6863 12.9894C12.8791 8.97982 5.62564 7.78399 5.0843 5.5418C4.99329 5.15298 5.0154 4.74969 5.06388 4.53548C5.19911 3.92095 5.61458 3.24979 6.80996 3.24979C7.93007 3.24979 8.58623 3.94139 8.58623 4.98477V6.17081H13.3575V4.82209C13.3575 0.652001 9.61662 0 6.91075 0C3.51299 0 0.733132 1.12769 0.226659 4.25015C0.0880268 5.10401 0.0693157 5.86844 0.270459 6.8326C1.0997 10.7459 7.89393 11.8766 8.87881 14.3551C9.06592 14.818 9.00638 15.4117 8.91665 15.7711C8.76101 16.4091 8.32811 17.0598 7.05406 17.0598C5.85868 17.0598 5.1332 16.3665 5.1332 15.3235L5.12852 13.468H0.00170088L0 14.9437C0 19.2151 3.35565 20.505 6.94859 20.505Z"/>
<path d="M67.282 5.59058C67.1893 5.20815 67.2127 4.80954 67.2582 4.59661C67.3938 3.98847 67.8059 3.32369 68.9873 3.32369C70.0993 3.32369 70.7474 4.00593 70.7474 5.04121V6.2132H75.4719V4.88023C75.4719 0.751457 71.7671 0.106696 69.088 0.106696C65.7264 0.106696 62.9734 1.22034 62.4729 4.31298C62.3346 5.15875 62.3155 5.91552 62.5171 6.8686C63.3353 10.7453 70.0636 11.864 71.0387 14.3183C71.2215 14.7782 71.1645 15.3629 71.0748 15.7207C70.9209 16.351 70.4931 16.9932 69.2314 16.9932C68.0466 16.9932 67.3275 16.3096 67.3275 15.2748L67.3245 13.4397H62.2479L62.2466 14.9013C62.2466 19.1297 65.5708 20.4056 69.1276 20.4056C72.5521 20.4056 75.3681 19.237 75.8176 16.0716C76.0473 14.4363 75.8793 13.3652 75.7972 12.9636C74.9969 8.99325 67.8157 7.81062 67.282 5.59058Z"/>
<path d="M93.8062 0.606606H88.9673V14.7709C88.969 15.0167 88.9622 15.2956 88.9218 15.5021C88.827 15.9732 88.4183 16.8896 87.089 16.8896H87.0886C85.7579 16.8896 85.3471 15.9732 85.2544 15.5021C85.2136 15.2956 85.2038 15.0167 85.2085 14.7709V0.606606H80.373V14.3344C80.3636 14.6875 80.4002 15.4076 80.4172 15.5946C80.7523 19.168 83.573 20.3259 87.089 20.3259C90.6033 20.3259 93.4239 19.168 93.7573 15.5946C93.7765 15.4076 93.8126 14.6875 93.8062 14.3344V0.606606Z"/>
<path d="M127.005 9.00292V11.7945H128.965V14.575C128.969 14.8173 128.959 15.0851 128.92 15.3011C128.833 15.8134 128.35 16.6911 126.966 16.6911C125.583 16.6911 125.101 15.8134 125.011 15.3015C124.974 15.0856 124.965 14.8177 124.966 14.575V5.82212C124.966 5.51039 124.989 5.16799 125.044 4.91588C125.149 4.44359 125.558 3.5267 126.948 3.5267C128.41 3.5267 128.773 4.49384 128.86 4.91588C128.917 5.19184 128.921 5.64709 128.92 5.64539V6.71857H133.742V6.08062C133.738 6.08062 133.759 5.4299 133.697 4.82006C133.345 1.22958 130.377 0.089105 126.987 0.089105C123.594 0.089105 120.702 1.24065 120.276 4.82006C120.236 5.13988 120.195 5.74035 120.195 6.08062L120.194 14.1355C120.195 14.4962 120.205 14.7594 120.26 15.396C120.579 18.8839 123.594 20.1283 126.985 20.1283C130.373 20.1283 133.392 18.8834 133.708 15.396C133.766 14.7594 133.774 14.4962 133.778 14.1355V9.00292H127.005Z"/>
</svg>

<svg width="201" height="28" xmlns="http://www.w3.org/2000/svg"><path d="M156.615 11.06h-2.91V3.528h2.91c2.267 0 3.807 1.68 3.807 3.752 0 2.1-1.54 3.78-3.807 3.78zm.28-11.06h-6.996v20.44h3.806v-5.852h3.162c4.254 0 7.388-3.248 7.388-7.308 0-4.032-3.134-7.28-7.36-7.28zm17.045 17.303c-2.799 0-4.953-2.24-4.953-5.095 0-2.828 2.154-5.04 4.953-5.04 2.798 0 4.897 2.268 4.897 5.04 0 2.828-2.099 5.095-4.897 5.095zm4.702-11.283c-1.176-1.4-3.107-2.297-5.261-2.297-4.142 0-8.116 3.109-8.116 8.54 0 5.35 4.113 8.513 8.059 8.513 2.155 0 4.114-.952 5.318-2.464v2.128h3.777V4.06h-3.777v1.96zm13.883 9.072L187.963 4.06h-4.03l6.717 15.568L187.207 28h3.835l9.766-23.94h-3.974l-4.309 11.032zm-81.795.548h-.105L106.231.61h-7.097v18.949h4.703l-.265-15.548h.105l4.72 15.548h6.808V.609h-4.735l.26 15.03zM24.708 2.384l.107-.002 2.548 17.374H32.5L28.976.61H20.47l-3.544 19.146h5.167l2.615-17.372zM49.358.61L47 15.25h-.109L44.537.61h-7.799l-.421 19.146h4.785l.12-17.212h.105l3.194 17.212h4.851l3.195-17.21.106-.002.12 17.212h4.781L57.153.61h-7.795zM6.949 20.505c3.459 0 6.303-1.181 6.758-4.378.232-1.652.061-2.735-.02-3.138-.808-4.01-8.061-5.205-8.603-7.447a2.468 2.468 0 01-.02-1.007c.135-.614.55-1.285 1.746-1.285 1.12 0 1.776.691 1.776 1.735V6.17h4.771V4.822C13.357.652 9.617 0 6.912 0 3.513 0 .733 1.128.227 4.25.088 5.104.069 5.868.27 6.833c.83 3.913 7.624 5.044 8.609 7.522.187.463.127 1.057.038 1.416-.156.638-.589 1.289-1.863 1.289-1.195 0-1.92-.694-1.92-1.736l-.005-1.856H.002L0 14.944c0 4.271 3.356 5.561 6.949 5.561zM67.282 5.59a2.441 2.441 0 01-.024-.993c.136-.609.548-1.273 1.73-1.273 1.111 0 1.76.682 1.76 1.717v1.172h4.724V4.88c0-4.129-3.705-4.773-6.384-4.773-3.362 0-6.115 1.113-6.615 4.206-.138.846-.157 1.603.044 2.556.818 3.876 7.547 4.995 8.522 7.45.183.46.126 1.044.036 1.402-.154.63-.582 1.272-1.844 1.272-1.184 0-1.903-.683-1.903-1.718l-.004-1.835h-5.076l-.001 1.461c0 4.229 3.324 5.505 6.88 5.505 3.425 0 6.241-1.169 6.69-4.334.23-1.636.062-2.707-.02-3.108-.8-3.97-7.981-5.153-8.515-7.373zM93.806.607h-4.839V14.77c.002.246-.005.525-.045.731-.095.471-.504 1.388-1.833 1.388-1.331 0-1.742-.917-1.835-1.388a3.741 3.741 0 01-.046-.731V.607h-4.835v13.727c-.01.354.027 1.074.044 1.26.335 3.574 3.156 4.732 6.672 4.732 3.514 0 6.335-1.158 6.668-4.731.02-.187.056-.908.05-1.26V.606zm33.199 8.396v2.791h1.96v2.781c.004.242-.006.51-.045.726-.087.512-.57 1.39-1.954 1.39-1.383 0-1.865-.878-1.955-1.39a4.466 4.466 0 01-.045-.726V5.822a4.6 4.6 0 01.078-.906c.105-.472.514-1.39 1.904-1.39 1.462 0 1.825.968 1.912 1.39.057.276.061.731.06.73v1.073h4.822V6.08c-.004 0 .017-.651-.045-1.26-.352-3.591-3.32-4.732-6.71-4.732-3.393 0-6.285 1.152-6.711 4.731-.04.32-.081.92-.081 1.26l-.001 8.056c.001.36.011.623.066 1.26.319 3.488 3.334 4.732 6.725 4.732 3.388 0 6.407-1.245 6.723-4.732.058-.637.066-.9.07-1.26V9.003h-6.773z"/></svg>
